X:125
T: Trip to Killarney
S: Treoir
Z: B.Black
N: from "O'Farrell's Pocket Companion for the Irish Union Pipes"
M: 6/8
L: 1/8
R: jig
K: D
A | d2 f age | agf a2 f | d2 f agf | e2 f g2 e |
d2 f age | agf a2 f | gbg faf | e2 f g2 e :|
fed dAF | DFA dAd | fed dAd | e2 f g2 e |
fed dAF | DED dAF | G2 d AGF | E2 F G2 E :|
D2 d AGF | AGF AGF | G2 d AGF | E2 F G2 E |
D2 d AGF | AGF A2 F | G2 d AGF | E2 F G2 E :|
d3 cBc | dAF FED | d3 cBc | e2 f g2 e |
dfd cec | dAF FED | G2 d AGF | E2 F G2 E :|
